!!!ONB: MCCC : IJH0457_02 : Extracted Monophonic Melody
!!!COM: Haydn, Joseph
!!!OPR: String Quartet in F minor
!!!OMV: 2
!!!SCT: Hob.III:61 ; Op.55 No.2
!!!ODT: 1788///
**kern
*thru
*k[b-e-a-d-]
*f:
*clefF
*M2/2
1ff
=1
2.ccc
4ccc
=2
4ddd-
4bb
4r
4bb
=3
4ccc
4gg
4r
4gg
=4
2bb-[
8.bb-]
16aa-
8.gg
16ff
=5
8.ee
16dd-
8.cc
16b-
8.a-
16g
8.f
16e
=6
4f
4d-
4c
4B
=7
4c
4cc
2r
=8
1ff
=9
2.ccc
4ccc
=10
4ddd-
4bb
4r
4bb
=11
4ccc
4ggg
8.r
16B-
4B-
=12
4d-
4B-
8.r
16B-
4B-
=13
8.d-
16B-
8.g
16e
8.b-
16g
8.dd-
16dd-
=14
2dd-
4cc
4e
=15
4f
2.r
=16
1r
=17
1r
=18
1g-
=19
2.dd-
4dd-
=20
4ee-
4cc
4r
4cc
=21
4dd-
4aa-
4r
4cc
=22
4dd-
4aa-
4r
4dd-
=23
4ee-
4bb-
4r
4dd
=24
4ee-
4..bb-
16aa-
8.gg-
16ff
=25
4ee-
2ee-
4dd-
=26
8.cc
16eee-
8.ddd-
16ccc
8.bb-
16aa-
8.gg
16ff
=27
8.ee-
16dd
8.ee-
16ff
8.ee-
16dd-
8.cc
16b-
=28
8.cc
16ee-
8.dd-
16cc
8.b-
16a-
8.g
16f
=29
8.e-
16d
8.e-
16f
8.e-
16d-
8.c
16B-
=30
8A-
8c
8e-
8c
8a-
8e-
8cc
8a-
=31
8f
8a
8b-
8cc
8dd-
8dd
8ee-
8ee
=32
8ff
8ee-
8dd-
8cc
8b-
8a-
8g
8a-
=33
8g
8b-
8dd-
8b-
8gg
8aa-
8bb-
8ccc
=34
8ddd-
8ccc
8bb-
8aa-
8gg
8ff
8ee-
8dd-
=35
8cc
8ee-
8dd-
8cc
8b-
8a-
8g
8a-
=36
8d
8cc
8b-
8a-
8g
8f
8e-
8d
=37
8e-
8g
8b-
8g
8ee-
8b-
8gg
8ee-
=38
8dd
8ee-
8ff
8gg
8aa-
8ff
8dd
8ff
=39
8ee-
8dd
8ee-
8ff
8ee-
8dd-
8cc
8b-
=40
1a-
=41
2.ee-
4ee-
=42
4ff
4dd
4r
4dd
=43
4ee-
4b-
4r
4cc
=44
2ee-
4dd-
4cc
=45
4b-
4ff
4dd-
4b-
=46
2a-
8.b-
16a-
8.b-
16cc
=47
4a-
4cc
4ee-
4r
=48
4r
4gg
4bb-
4r
=49
4r
4cc
4ee-
4r
=50
4r
4gg
4bb-
4r
=51
4r
4cc-
4cc-
4cc-
=52
2.b-
8ff
8ee-
=53
4ee-
8ff
8ee-
4ee-
8ff
8ee-
=54
4ee-
8ff
8ee-
8ff
8ee-
8ff
8ee-
=55
4..ccc
16gg
4..aa-
16ee
=56
4..ee
16gg
8.ee
16gg
8.ee
16gg
=57
8ee
8ff
8cc
8dd-
8a
8b-
8dd-
8b-
=58
2.a-
8cc
8b-
=59
8.a-
16e-
8.f
16g
8.a-
16b-
8.cc
16dd-
=60
8.ee-
16ff
8.ee-
16dd
4ee-
4ee-
=61
1ee-[
=62
8.ee-]
16ff
8.ee-
16dd
4ee-
4ee-
=63
1ee-[
=64
8.ee-]
16gg
8.aa-
16bb-
8.ccc
16ddd-
8.eee-
16fff
=65
2ggg-
4fff
4eee
=66
8.ff
16gg
8.aa-
16gg
4aa-
4bb-
=67
1ccc-
=68
1ccc
=69
1G
=70
8A-
8e-
8c
8a-
8e-
8cc
8a-
8ee-
=71
2.ee-
4G
=72
8A-
8e-
8c
8a-
8e-
8cc
8a-
8ee-
=73
2.ee-
4g
=74
8A-
8e-
8c
8a-
8e-
8cc
8a-
8ee-
=75
1ee
=76
2.gg-
4cc
=77
1dd-
=78
2.aa-
4aa-
=79
4bb-
4gg
4r
4gg
=80
4aa-
4ee-
4r
4ee-
=81
2gg-[
8.gg-]
16ff
8.ee-
16dd-
=82
8.cc
16dd-
8.ee-
16dd-
8.cc
16b-
8.a-
16g-
=83
4f
4d-
4B-
4G
=84
4A-
4a-
2r
=85
1r
=86
1r
=87
1a
=88
2.ee
4ee
=89
4ff#
4dd#
4r
4dd#
=90
4ee
4bb
4r
4dd#
=91
4ee
4bb
4r
4dd#
=92
4ee
4bb
4r
4cc#
=93
4dd
4aa
4r
4b
=94
4cc
4gg
4r
4a
=95
4b-
4ff
4r
4a
=96
4b-
4ff
4r
4a
=97
4b-
4ff
4r
4a
=98
8b-
8ff
8ee-
8dd
8cc
8b-
8a
8b-
=99
8a
8b-
8cc
8b-
8a
8g
8f
8e-
=100
8d
8b-
8d-
8b-
8c
8b-
8c
8b-
=101
8c
8a
8c-
8a-
8B-
8a-
8B-
8a-
=102
8g
8bb-
8aa-
8gg
8ff
8ee-
8dd
8ee-
=103
8dd
8ee-
8ff
8ee-
8dd
8b-
8cc
8dd
=104
8ee-
8ff
8ee-
8ff
8ee-
8ff
8ee-
8ff
=105
8dd
8ff
8dd
8ff
8dd-
8ee-
8dd-
8ee-
=106
8cc
8ee-
8cc
8ee-
8cc
8ee-
8cc
8ee-
=107
8b
8dd
8b
8dd
8b
8dd
8cc
8b
=108
8cc
8b
8cc
8dd
8ee-
8gg
8ff
8ee-
=109
8dd
8cc
8dd
8ee-
8ff
8aa-
8gg
8ff
=110
8ee-
8ccc
8ee-
8ccc
8ee-
8ccc
8ee-
8ccc
=111
8dd
8bb
8dd-
8bb-
8cc
8bb-
8cc
8bb-
=112
8aa-
8ccc
8bb-
8aa-
8gg
8ff
8ee
8ff
=113
8ee
8ff
8gg
8dd-
8cc
8b-
8a-
8g
=114
8f
8e
8f
8a-
8g
8f
8e
8f
=115
8e
8g
8b-
8dd-
8cc
8b-
8a-
8g
=116
8f
8ee
8ff
8ee
8ff
8ee
8ff
8gg
=117
8aa-
8bb-
8ccc
8bb-
8aa-
8gg
8ff
8ee-
=118
8dd
8ff
8aa-
8ccc
8bb-
8aa-
8gg
8ff
=119
4ee-
2.r
=120
1r
=121
1r
=122
1r
=123
1r
=124
1r
=125
1ff
=126
2.ccc
4ccc
=127
4ddd-
4bb
4r
4bb
=128
4ccc
4gg
4r
4aa-
=129
4bb-
4ff
4r
4gg
=130
4aa-
4ee-
4r
4ff#
=131
4gg
4dd
4r
4ee
=132
8ff
8ee
8ff
8aa-
8gg
8ff
8ee
8ff
=133
8ee
8gg
8bb-
8ddd-
8ccc
8bb-
8aa-
8gg
=134
8aa-
8ccc
8bb-
8aa-
8gg
8ff
8ee
8ff
=135
8ee
8ff
8gg
8ff
8ee
8dd-
8cc
8b-
=136
8a-
8g
8a-
8cc
8b-
8a-
8g
8f
=137
8e
8f
8g
8d-
8c
8B-
8A-
8G
=138
8A-
8c
8f
8c
8a-
8f
8a-
8cc
=139
8ff
8cc
8aa-
8ff
8cc
8a-
8f
8c
=140
8B
8d
8f
8d
8a-
8f
8a-
8b
=141
8dd
8ff
8aa-
8ff
8dd
8b
8a-
8f
=142
8c
8e
8g
8e
8cc
8g
8ee
8cc
=143
8gg
8ee
8ccc
8gg
8ee
8cc
8g
8e
=144
2c
2r
=145
1ff
=146
2.ccc
4ccc
=147
4ddd
4bb
4r
4bb
=148
4ccc
4gg
4r
4aa
=149
2ccc
4bb-
4aa
=150
4gg
4ddd
4bb-
4gg
=151
2ff
8.gg
16ff
8.gg
16aa
=152
4ff
4aa
4ccc
4r
=153
4r
4gg
4bb-
4r
=154
4r
4a
4cc
4r
=155
4r
4g
4b-
4r
=156
4r
4a-
4a-
4a-
=157
2.g
8dd
8cc
=158
4cc
8dd
8cc
4cc
8dd
8cc
=159
4cc
8dd
8cc
8dd
8cc
8dd
8cc
=160
4..aa
16ee
4..ff
16cc#
=161
4..cc#
16ee
8.cc#
16ee
8.cc#
16ee
=162
8cc#
8dd
8a
8b-
8f#
8g
8b-
8g
=163
2.f
8a
8g
=164
8.f
16c
8.d
16e
8.f
16g
8.a
16b-
=165
8.cc
16dd
8.cc
16b
4cc
4cc
=166
1cc[
=167
8.cc]
16dd
8.cc
16b
4cc
4cc
=168
1cc[
=169
8.cc]
16ee
8.ff
16gg
8.aa
16bb-
8.ccc
16ddd
=170
2eee-
4ddd
4ccc#
=171
8.ddd
16eee
8.fff
16eee
4fff
4ggg
=172
1aaa-
=173
1aaa
=174
1e
=175
8f
8cc
8a
8ff
8cc
8aa
8ff
8ccc
=176
2.ccc
4ee
=177
8f
8cc
8a
8ff
8cc
8aa
8ff
8ccc
=178
2.ccc
4ee
=179
4ff
2.r
=180
1r
==
*-
